X: 24719
T: Mactaquac, The
R: reel
M: 4/4
K: Dmajor
FE|DFAc dAFD|GAFA B,2 CB,|A,CEA cABc|dAFB A2 FE|
DFAc dAFD|GAFA B,2 CB,|A,CEA ceaf|gece d2:|
FG|A2 FA d2 Ad|fdfg a2AB|=c2 ec BcdB|AGFG A2 FG|
A2 FA d2 Ad|fdfg a3 f|gbag fdfd|cdec d2:|

